X: 29852
T: O'Donovan's
R: hornpipe
M: 4/4
K: Dmajor
(3DEF|G>FG>B A>FD>c|d>cd>f e>cA>f|(3gag e>g (3faf d>f|(3efe (3dcB (3ABA (3GFE|
G>FG>B A>FD>c|d>cd>f e>cA>g|(3faf d>f (3gag (3edc|d2d>c d2:|
(3ABc|d>cd>f a>fd>f|a>=c'b>f a>fd>f|(3gbg e>g (3faf d>f|(3efe (3dcB (3ABA (3GFE|
G>FG>B A>FD>c|d>cd>f e>cA>g|(3faf d>f (3gag (3edc|d2d>c d2:|

